!!!!SEGMENT: pl-wtm--2188-fp-7558_stojowski-zygmunt--serenade-op-8-no-3.krn
!!!cenid: 18xx:4450
!!!COM: Stojowski, Zygmunt
!!!COM-rismID: pe41019736
!!!CDT: 1870-1946
!!!CNT: Polish
!!!OTL: Sérénade op. 8 No. 3
!!!PDT: 1892
!!!AGN:
!!!YEC: Copyright 2022 Narodowy Instytut Fryderyka Chopina (https://polishscores.org)
!!!YEM: License CC-BY-4.0 (https://creativecommons.org/licenses/by/4.0)
!!!SMS-siglum: PL-Wtm
!!!SMS-shelfmark: 2188 fp 7558
!!!SMS-variant:
!!!SMS-altvar:
!!!SMS-shelfwork: W
!!!NIFC-rismSourceID: 1001220496
!!!NIFC-rismChildID: 1001220496
!!!NIFC-islandoraID: pl-wtm:88073
!!!URL-pdf-islandora: https://repozytorium.nifc.pl/islandora/object/pl-wtm%3A88073/datastream/PDF/view
!!!URL-scan: https://polish.musicsources.pl/pl/lokalizacje/galeria/druki-muzyczne/19204/2 @EN{Scan on Polish Music Sources Website} @PL{Skany w portalu Dziedzictwo Muzyki Polskiej w otwartym dostępie}
!!!IIIF:
!!!ONB-nifc:
!!!AIN: 1 piano
!!!key: A-
**kern	**kern	**dynam
*part1	*part1	*part1
*staff2	*staff1	*
*I"Piano	*I"Piano	*
*I'[pf]	*I'[pf]	*
*ICklav	*ICklav	*
*Ipiano	*Ipiano	*
*clefF4	*clefG2	*
*k[b-e-a-d-]	*k[b-e-a-d-]	*
*A-:	*A-:	*
*M2/4	*M2/4	*
=1	=1	=1
*^	*	*
!	!	!LO:TX:a:B:t=Andantino con moto.	!
8AA-/	4.AA-\	2r	p
4.E-/	.	.	.
.	8EE-\	.	.
=2	=2	=2	=2
8AA-/	4.AA-\	2r	.
4.E-/	.	.	.
.	8EE-\	.	.
=3	=3	=3	=3
*	*	*^	*
8AA-/	4.AA-\	8r	8ryy	.
!	!	!LO:TX:b:i:t=dolce grazioso	!	!
4.E-/	.	(8ee-':/L	[4.cc:\	.
.	.	8ee-'/	.	.
.	8EE-\	8ee-'/J)	.	.
=4	=4	=4	=4	=4
!	!	!LO:TX:a:i:t=legg.	!	!
8AA-/	4.AA-\	(28ee-/LL	8cc\]	.
.	.	28ff/	.	.
.	.	28ee-/	.	.
.	.	28cc/	.	.
4.E-/	.	.	8ryy	.
.	.	28a-/	.	.
.	.	28f/	.	.
.	.	28e-/JJ	.	.
.	.	8c'/L)	4ryy	.
.	8EE-\	8c'/J	.	.
*	*	*v	*v	*
=5	=5	=5	=5
8AA-/	4.AA-\	(16c/LL	.
.	.	16d-/J	.
4.E-/	.	32c/LL	.
.	.	32d-/	.
.	.	32c/	.
.	.	32d-/JJJ	.
.	.	8c/L	.
.	8EE-\	16B-/L	.
.	.	16A-/JJ)	.
=6	=6	=6	=6
*	*	*^	*
8BB-/	4BB-\	[4e-/	(4d-\	.
4E-/	.	.	.	.
.	4r	8e-/]	8B-\)	.
8EE-/	.	8r	8ryy	.
!!LO:LB:g=original	!	!	!	!
=7	=7	=7	=7	=7
8AA-/	4.AA-\	8r	8ryy	.
4.E-/	.	(8ee-':/L	[4.cc:\	.
.	.	8ee-'/	.	.
.	8EE-\	8ee-'/J)	.	.
=8	=8	=8	=8	=8
8AA-/	4.AA-\	(28ee-/LL	8cc\]	.
.	.	28ff/	.	.
.	.	28ee-/	.	.
.	.	28cc/	.	.
4.E-/	.	.	8ryy	.
.	.	28a-/	.	.
.	.	28f/	.	.
.	.	28e-/JJ	.	.
.	.	8c'/L)	4ryy	.
.	8EE-\	8c'/J	.	.
*	*	*v	*v	*
=9	=9	=9	=9
8AA-/	4.AA-\	(16c/LL	.
.	.	16d-/J	.
4.E-/	.	32c/LL	.
.	.	32d-/	.
.	.	32c/	.
.	.	32d-/JJJ	.
.	.	8c/L	.
.	8EE-\	16B-/L	.
.	.	16A-/JJ)	.
*v	*v	*	*
=10	=10	=10
*	*^	*
8BB-/	[4e-/	(4d-\	.
4E-\	.	.	.
.	8e-/]	8B-\)	.
(8DD-/	8r	8ryy	.
*	*v	*v	*
=11	=11	=11
8CC/)	8r	.
(4E-~\ 4A- 4e-	(8ee-'\L	.
.	8ee-'\	.
8E-'\) 8A- 8e-	16ee-'\L	.
.	16ee-'\JJ)	.
=12	=12	=12
8BBBn/	(16ff\LL	.
.	16gg\J	.
(4E-~\ 4A- 4dn	32ff\LL	.
.	32gg\	.
.	32ff\	.
.	32gg\JJJ	.
.	8aa-'\L)	.
8E-'\) 8A- 8d	(16gg'\L	.
.	16ff'\JJ)	.
!!LO:LB:g=original	!	!
=13	=13	=13
8CC/	(4ee-\	.
(4E-~\ 4A- 4e-	.	.
.	8cc\L)	.
8E-'\) 8A- 8e-	(16cc\L	.
.	16cc\JJ	.
=14	=14	=14
*	*^	*
!	!LO:TX:b:i:t=espress.	!	!
8DD-/	16b-/LL	(4.f\	.
.	16cc/J	.	.
(4D-~\ 4A-	32b-/LL	.	>
.	32cc/	.	.
.	32b-/	.	.
.	32cc/JJJ	.	.
.	8dd-/L	.	.
8D-'\) 8G	16cc/L	8f-X\)	]
.	16b-/JJ	.	.
=15	=15	=15	=15
8CC/	4ee-:/)	4e-:\	.
(<4G\ 4e-	.	.	.
!	!	!	!LO:HP:t=poco cresc.
.	8ee-/L	4ryy	<
8A-\) 8e-	16ee-/L	.	.
.	16ee-/JJ	.	.
*	*v	*v	*
=16	=16	=16
8DD-/	(16ff\LL	.
.	16gg\J	.
4A-\ 4d- 4f	32ff\LL	.
.	32gg\	.
.	32ff\	.
.	32gg\JJJ	.
.	8aa-'\L)	.
8DDn/	16gg'\L	.
.	16ff'\JJ	.
=17	=17	=17
8EE-/	(4ee-\	.
(4E-~\ 4A- 4c 4e-	.	.
.	8cc\L)	.
8E-'\) 8A- 8c 8e-	16cc\L	.
.	16cc\JJ	.
=18	=18	=18
*	*^	*
8DD-/	(16b-/LL	4.f\	.
.	16cc/J	.	.
(4D-~\ 4A-	32b-/LL	.	.
.	32cc/	.	.
.	32b-/	.	.
.	32cc/JJJ	.	.
.	8dd-/L)	.	>
8D-'\) 8G	16cc'/L	8f\	.
.	16b-'/JJ	.	]]
*	*v	*v	*
!!LO:LB:g=original	!	!
=19	=19	=19
8C/	(4.cc\	.
4G\ 4en	.	.
(8C/	8g/)	.
=20	=20	=20
*	*^	*
8GG/)	(16b-/LL	4.f\	>
.	16cc/J	.	.
(4D-~\ 4B-	32b-/LL	.	.
.	32cc/	.	.
.	32b-/	.	.
.	32cc/JJJ	.	.
.	8dd-/L	.	.
8D-'\) 8B-	16cc/L	8f\	]
.	16b-/JJ)	.	.
*	*v	*v	*
=21	=21	=21
8CC/	(4.cc\	.
(4G~\ 4en	.	.
8G'\) 8e	8g/)	.
=22	=22	=22
*^	*^	*
8r	4.GG\	(16b-/LL	[2f\	.
.	.	16cc/J	.	.
[4.B-/	.	32b-/LL	.	.
.	.	32cc/	.	.
.	.	32b-/	.	.
.	.	32cc/JJJ	.	.
.	.	8dd-/L	.	.
!	!	!	!	!LO:HP:a
.	[8G\	16cc/L	.	<
.	.	16b-/JJ	.	.
=23	=23	=23	=23	=23
4B-/]	(8G\L]	8dd-/L	(8f\L]	.
.	8G-X\J	16cc/L	8en\	.
.	.	16b-/JJ	.	[
(8An/L	4F\)	8cc/L	8e-X\	.
[8A-X/J)	.	16b-/L	8dn\J)	.
!	!	!	!	!LO:HP:a
.	.	16a-/JJ)	.	>
=24	=24	=24	=24	=24
!	!	!LO:TX:b:i:t=slentando	!	!
(4.A-/]	(8F-X\	(4b-/	[4d-X\	]
.	4E-\)	.	.	.
.	.	8e-/)	8d-\]	.
8G/)	8r	8r	8ryy	.
!!LO:LB:g=original	!	!	!	!
=25	=25	=25	=25	=25
!	!	!LO:TX:b:i:t=a tempo	!	!
8AA-/	4.AA-\	8r	8ryy	.
4.E-/	.	(8ee-':/L	[4.cc:\	.
.	.	8ee-'/	.	.
.	8EE-\	8ee-'/J)	.	.
=26	=26	=26	=26	=26
8AA-/	4.AA-\	(28ee-/LL	8cc\]	.
.	.	28ff/	.	.
.	.	28ee-/	.	.
.	.	28cc/	.	.
4.E-/	.	.	8ryy	.
.	.	28a-/	.	.
.	.	28f/	.	.
.	.	28e-/JJ	.	.
.	.	8c'/L)	4ryy	.
.	8EE-\	8c'/J	.	.
*	*	*v	*v	*
=27	=27	=27	=27
8AA-/	4.AA-\	(16c/LL	.
.	.	16d-/J	.
4.E-/	.	32c/LL	.
.	.	32d-/	.
.	.	32c/	.
.	.	32d-/JJJ	.
.	.	8c/L	.
.	8EE-\	16B-/L	.
.	.	16A-/JJ)	.
=28	=28	=28	=28
*	*	*^	*
8BB-/	4BB-\	[4e-/	(4d-\	.
4E-/	.	.	.	.
.	4r	8e-/]	8B-\)	.
8EE-/	.	8r	8ryy	.
=29	=29	=29	=29	=29
8AA-/	4.AA-\	8r	8ryy	.
4.E-/	.	(8ee-':/L	[4.cc:\	.
.	.	8ee-'/	.	.
.	8EE-\	8ee-'/J)	.	.
=30	=30	=30	=30	=30
8AA-/	4.AA-\	(28ee-/LL	8cc\]	.
.	.	28ff/	.	.
.	.	28ee-/	.	.
.	.	28cc/	.	.
4.E-/	.	.	8ryy	.
.	.	28a-/	.	.
.	.	28f/	.	.
.	.	28e-/JJ	.	.
.	.	8c'/L)	4ryy	.
.	8EE-\	8c'/J	.	.
*	*	*v	*v	*
=31	=31	=31	=31
8AA-/	4.AA-\	(16c/LL	.
.	.	16d-/J	.
4.E-/	.	32c/LL	.
.	.	32d-/	.
.	.	32c/	.
.	.	32d-/JJJ	.
.	.	8c/L	.
.	8EE-\	16B-/L	.
.	.	16A-/JJ)	.
*v	*v	*	*
!!LO:LB:g=original	!	!
=32	=32	=32
*	*^	*
8BB-/	[4e-/	(4d-\	.
4E-\	.	.	.
.	8e-/]	8B-\)	.
(8DD-/	8r	8ryy	.
*	*v	*v	*
=33	=33	=33
8CC/)	8r	.
(4E-~\ 4A- 4e-	(8ee-'\L	.
.	8ee-'\	.
8E-'\) 8A- 8e-	16ee-'\L	.
.	16ee-'\JJ)	.
=34	=34	=34
8BBBn/	(16ff\LL	.
.	16gg\J	.
(4E-~\ 4A- 4dn	32ff\LL	.
.	32gg\	.
.	32ff\	.
.	32gg\JJJ	.
.	8aa-'\L)	.
8E-'\) 8A- 8d	(16gg'\L	.
.	16ff'\JJ)	.
=35	=35	=35
8CC/	(4ee-\	.
(4E-~\ 4A- 4e-	.	.
.	8cc\L)	.
8E-'\) 8A- 8e-	(16cc\L	.
.	16cc\JJ	.
=36	=36	=36
*	*^	*
8DD-/	16b-/LL	(4.f\	.
.	16cc/J	.	.
(4D-\ 4A-	32b-/LL	.	.
.	32cc/	.	.
.	32b-/	.	.
.	32cc/JJJ	.	.
.	8dd-/L	.	.
8D-\) 8G	16cc/L	8f-X\)	.
.	16b-/JJ	.	.
=37	=37	=37	=37
8CC/	4ee-/)	4e-\	.
4G\ 4e-	.	.	.
.	8ee-/L	4ryy	.
8A-\ 8e-	16ee-/L	.	.
.	16ee-/JJ	.	.
*	*v	*v	*
!!LO:PB:g=original	!	!
=38	=38	=38
!	!	!LO:DY:t=poco rinf.
8DD-/	(16ff\LL	rfz
.	16gg\J	.
4A-\ 4d- 4f	32ff\LL	.
.	32gg\	.
.	32ff\	.
.	32gg\JJJ	.
.	8aa-'\L)	.
(8DDn/	(16gg'\L	.
.	16ff'\JJ)	.
=39	=39	=39
8EE-/)	(4ee-\	.
4E-\ 4A- 4c 4e-	.	.
.	8cc\L)	.
8E-\ 8A- 8c 8e-	16cc\L	.
.	16cc\JJ	.
=40	=40	=40
8DDn/	(16ff\LL	.
.	16gg\J	.
!	!	!LO:HP:a
4B-\ 4f 4a-	32ff\LL	<
.	32gg\	.
.	32ff\	.
.	32gg\JJJ	.
.	8aa-'\L)	[
8B-\ 8f 8a-	(16gg'\L	.
.	16ff'\JJ)	.
=41	=41	=41
8EE-/	[2bb-\	.
4B-\ 4d-X 4g	.	.
(8EE-/	.	.
=42	=42	=42
8EEn/)	(16bb-\LL]	.
.	16ccc\J	.
4B-\ 4d- 4g	32bb-\LL	.
.	32ccc\	.
.	32bb-\	.
.	32ccc\JJJ	.
.	8ddd-\L)	.
(8EE/	(16ccc'\L	.
.	16bb-'\JJ)	.
=43	=43	=43
!	!	!LO:HP:t=dim.
8FF/)	(4aa-\	>
4C\ 4F 4A- 4c	.	.
.	8gg\L)	.
8FF/	(8ff\J	.
!!LO:LB:g=original	!	!
=44	=44	=44
8GG/	16ee-\LL	.
.	16ff\J	>
4E-\ 4B- 4d- 4e-	32ee-\LL	.
.	32ff\	.
.	32ee-\	.
.	32ff\JJJ	.
.	8gg'\L)	.
8E-\ 8B- 8d- 8e-	(16ff\L	]
.	16dd-\JJ)	.
=45	=45	=45
*	*^	*
8AA-/	(4cc/	4.r	.
4E-\ 4A- 4c	.	.	.
.	8ee-/L)	.	.
8AAn\ 8G-X	8ee-/J	[8e-\	.
=46	=46	=46	=46
!	!	!LO:TX:t=P:problem: voice leading line	!
8BB-/	(16b-/LL	8e-\]	.
.	16cc/J	.	.
4F\ 4d-	32b-/LL	8ryy	.
.	32cc/	.	.
.	32b-/	.	.
.	32cc/JJJ	.	.
.	8dd-/L	4ryy	.
8F-X\ 8d-	16cc/L	.	.
.	16b-/JJ)	.	.
*	*v	*v	*
=47	=47	=47
!	!	!LO:HP:t=poco cresc.
8EE-/	(16a-/LL	<
.	16b-/J	.
4E-\ 4A- 4d-	32a-/LL	.
.	32b-/	.
.	32a-/	.
.	32b-/JJJ	.
.	8cc/L	.
8E-\ 8A- 8c	16b-/L	.
.	16a-/JJ)	.
=48	=48	=48
!	!LO:TX:b:i:t=espress.	!
8EE-/	(16f/LL	.
.	16g/J	.
4E-\ 4A- 4B- 4dn	32f/LL	.
.	32g/	.
.	32f/	.
.	32g/JJJ	.
.	8a-/L	.
8E-\ 8A- 8B- 8d	16g/L	.
.	16f/JJ)	.
!!LO:LB:g=original	!	!
=49	=49	=49
*^	*^	*
!	!	!	!	!LO:HP:a
(8E-/L	2EE-\	(4a-:/	(8c:\L	>
8Dn/	.	.	8B-\	.
8C/	.	4e-/)	8A-\	]
16D/L	.	.	16B-\L	.
16C/JJ)	.	.	16A-\JJ)	.
=50	=50	=50	=50	=50
!	!	!LO:TX:b:i:t=poco slent.	!	!
8Dn/	2EE-\	(16f/LL	2B-\	p
.	.	16g/J	.	.
4BB-/	.	32f/LL	.	.
.	.	32g/	.	.
.	.	32f/	.	.
.	.	32g/JJJ	.	.
.	.	8a-/L	.	.
8BB-/	.	16g/L	.	.
.	.	16f/JJ)	.	.
=51	=51	=51	=51	=51
(8E-/L	2EE-\	(4a-/	(8c\L	.
8Dn/	.	.	8B-\	.
8C/	.	8e-/)	8A-\	.
16D/L	.	8r	16B-\L	.
16C/JJ)	.	.	16A-\JJ)	.
=52	=52	=52	=52	=52
!	!	!	!	!LO:DY:t=poco stretto e rinforzando molto
8Dn/	2EE-\	(16f/LL	4B-\	rfz
.	.	16g/	.	.
4BB-/	.	16f/	.	.
.	.	16g/JJ	.	.
.	.	8a-/L	4r	.
[8BB-/	.	16g/L	.	.
.	.	16f/JJ)	.	.
*	*	*v	*v	*
=53	=53	=53	=53
8BB-/]	2EE-\	(16b-\LL	.
.	.	16cc\	.
4A-/ 4B- 4dn	.	16b-\	.
.	.	16cc\JJ	.
.	.	8ddn\L	.
[8BB-/	.	16cc\L	.
.	.	16b-\JJ)	.
=54	=54	=54	=54
8BB-/]	2EE-\	(16ff\LL	.
.	.	16gg\	.
4A-/ 4B- 4dn	.	16ff\	.
.	.	16gg\JJ	.
.	.	8aa-\L	.
[8BB-/	.	16gg\L	.
.	.	16ff\JJ)	.
!!LO:LB:g=original	!	!	!
=55	=55	=55	=55
!	!	!LO:TX:b:i:t=rall.	!
8BB-/]	2EE-\	(16bb-\LL	.
.	.	16ccc\	.
4A-/ 4B- 4dn	.	16bb-\	.
.	.	16ccc\JJ	.
.	.	8dddn\L	.
8EE-/	.	16ccc\L	.
.	.	16bb-\JJ)	.
=56	=56	=56	=56
!	!	!LO:TX:a:i:t=a tempo	!
!	!	!LO:TX:b:i:t=conpassione	!
16ryy	4EEE-:/ 4EE-:	16ee-/ 16gg 16ddd- 16eee-	ff
(16f>\LL	.	(>16ff/LL	.
16e->\	.	16ee-/	.
16f>\JJ	.	16ff/JJ	.
(8d-X>\L)	4ryy	8dd-X/L)	.
16c>\L 16cc>	.	8ee-/J 8gg 8ddd- 8eee-	.
16B->\JJ) 16b->	.	.	.
*v	*v	*	*
=57	=57	=57
*	*^	*
8c>\L 8cc>	8r	4ryy	.
8E-/J 8e-	8ee-/ 8aa- 8ccc 8eee-	.	.
8A-\L	8r	8a-\L	.
16G\L	8a-/ 8cc 8ee-	16g\L	.
16F\JJ	.	16f\JJ	.
=58	=58	=58	=58
*^	*	*	*
*	*	*	*	*^
!	!	!	!	!LO:DY:a	!LO:DY:b=2
16E-:/LL	8EE-:\	8g/ 8dd- 8ee-	16e-\LL	sf	sf
16F/	.	.	16f\	.	.
16E-/	8ryy	8ryy	16e-\	.	.
16F/JJ	.	.	16f\JJ	.	.
8G\L	4ryy	8g/L	4ryy	.	.
16F\L	.	16f/L	.	.	.
16E-\JJ	.	16e-/JJ	.	.	.
*	*	*	*	*v	*v
=59	=59	=59	=59	=59
!	!	!LO:TX:a:i:t=allarg.	!	!
8r	4F~\	8r	4f~\	.
8A-/	.	8a-/ 8cc	.	.
8r	4C~\	8r	4c~\	.
8A-/	.	8a-/ 8cc	.	.
*v	*v	*	*	*
=60	=60	=60	=60
!	!LO:TX:a:i:t=a tempo	!	!
4.E-:\ 4.d-: 4.f:	(16ee-:/LL	4.a-\:	pp
.	16ff/	.	.
.	16ee-/	.	.
.	16ff/JJ	.	.
.	8dd-/L	.	.
8E-\ 8d- 8e-	16cc/L	8g\	.
.	16b-/JJ)	.	.
!!LO:LB:g=original	!	!	!
=61	=61	=61	=61
8E-\ 8c 8e-	8cc/L	8a-\	.
8r	(8e-/	8r	.
4r	8a-/	4r	.
.	16g/L	.	.
.	16f/JJ)	.	.
=62	=62	=62	=62
[4E-\ [4d-	(16e-/LL	(4An\	.
.	16f/	.	.
.	16e-/	.	.
.	16f/JJ	.	.
8E-\] 8d-]	8g/L	8B-\L	.
8r	16f/L	8Bn\J)	.
.	16e-/JJ)	.	.
=63	=63	=63	=63
*^	*	*	*
!	!	!LO:TX:b:i:t=espress.	!	!
(16E-/LL	[2AA-\	(4a-/	2c\	.
16F/	.	.	.	.
16E-/	.	.	.	.
16F/JJ	.	.	.	.
8G/L	.	[4e-/)	.	.
16F/L	.	.	.	.
16G/JJ)	.	.	.	.
=64	=64	=64	=64	=64
!	!	!LO:TX:b:i:t=morendo	!	!
[2E-/	2AA-\]	(16e-/LL]	2d-\	.
.	.	16f/	.	.
.	.	16e-/	.	.
.	.	16f/JJ	.	.
.	.	8g/L	.	.
.	.	16f/L	.	.
.	.	16e-/JJ)	.	.
=65	=65	=65	=65	=65
(16E-/LL]	[2AA-\	(4a-/	2c\	.
16F/	.	.	.	.
16E-/	.	.	.	.
16F/JJ	.	.	.	.
8G/L	.	[4e-/)	.	.
16F/L	.	.	.	.
16G/JJ)	.	.	.	.
=66	=66	=66	=66	=66
[2E-/	2AA-\]	(16e-/LL]	2d-\	.
.	.	16f/	.	.
.	.	16e-/	.	.
.	.	16f/JJ	.	.
.	.	8g/L	.	.
.	.	16f/L	.	.
.	.	16e-/JJ)	.	.
!!LO:LB:g=original	!	!	!	!
=67	=67	=67	=67	=67
!	!	!LO:TX:b:i:t=rit.	!	!
(8E-/]	2AA-\	2a-/	2c\	.
4F/	.	.	.	.
8F#X/)	.	.	.	.
*v	*v	*	*	*
=68	=68	=68	=68
!	!LO:TX:a:i:t=a tempo poco più lento	!	!LO:DY:b=2
(16CC/LL	8r	16r	pp
!LO:TX:b:i:t=mysterioso	!	!	!
16GG/	.	[(16G\LL	.
16C/	4G~/] 4g	16c\	.
16Dn/JJ	.	16dn\JJ	.
8E-/L	.	8e-\L	.
16D/L	8G~/ 8g	16d\L	.
16C/JJ)	.	16c\JJ)	.
=69	=69	=69	=69
*^	*	*	*
2Dn~/	8r	8r	2dn~\	.
.	4GG~\	4G~/ 4g	.	.
.	8GG'\	8G~/ 8g	.	.
*v	*v	*	*	*
=70	=70	=70	=70
(16CC/LL	8r	16r	.
16GG/	.	(16G\LL	.
16C/	4G/ 4g	16c\	.
16Dn/JJ	.	16dn\JJ	.
8E-/L	.	8e-\L	.
16D/L	8G/ 8g	16d\L	.
16C/JJ)	.	16c\JJ)	.
=71	=71	=71	=71
*^	*	*	*
2F~/	8r	8r	2f~\	.
.	4GG\ 4Dn	4G/ 4c 4g	.	.
.	8GG\ 8D	8G/ 8c 8g	.	.
*v	*v	*	*	*
=72	=72	=72	=72
(16CC/LL	8r	16r	.
16GG/	.	(16G\LL	.
16C/	4G/ 4g	16c\	.
16Dn/JJ	.	16dn\JJ	.
8E-\L	.	8e-\L	.
!	!	!	!LO:HP:a:t=cresc. e string. un poco
16D\L	8G/ 8g	16d\L	<
16C\JJ)	.	16c\JJ)	.
=73	=73	=73	=73
(8Dn\L	(8dn/L	8r	.
16E-\L	16e-/L	8G\ 8Bn	.
16F\JJ	16f/JJ	.	.
8G\L	8g/L	8r	.
16F\L	16f/L	8G\ 8c	.
16E-\JJ)	16e-/JJ)	.	.
!!LO:PB:g=original	!	!	!
=74	=74	=74	=74
(16F\LL	(16f/LL	8r	.
16G\	16g/	.	.
16F\	16f/	8c-X\ 8e-	>
16G\JJ	16g/JJ	.	.
8A-\L	8a-/L	8r	.
16G\L	16g/L	8c-\ 8e-	.
16F\JJ)	16f/JJ)	.	]]
=75	=75	=75	=75
*^	*	*	*
!	!	!LO:TX:a:i:t=allargando molto	!	!
(4B-~/	8r	(4b-~/	8r	.
.	8EE-\ 8BB-	.	8G-X\ 8e- 8g-X	<
4c~/	8r	4cc~/	8r	.
.	8EE-\ 8BB-	.	8G-\ 8e- 8g-	.
=76	=76	=76	=76	=76
4d-~/	8r	4dd-~/	8r	[
.	8EE-\ 8BB-	.	8G-X\ 8e- 8g-X	>
8.c~/L	8r	8.cc~/L	8r	.
.	8EE-\ 8BB-	.	8G-\ 8e- 8g-	.
16G-X/Jk	.	16g-~/Jk	.	.
=77	=77	=77	=77	=77
4B-~/	8r	4b-~/	8r	.
.	8EE-\ 8BB-	.	8B-\ 8c 8g-X	]
4B--~;/)	8r	4b--~;/)	8r	.
.	8EEn\ 8BB--	.	8B--\ 8d- 8gn	.
*v	*v	*	*	*
*	*clefF4	*	*
=78	=78	=78	=78
!	!LO:TX:a:i:t=a tempo	!	!
(16FFF/LL	8ryy	16r	pp
16CC/	.	(<16C\LL	.
16FF/	4C/ 4c	16F\	.
16GG/JJ	.	16G\JJ	.
8AA-/L	.	8A-\L	.
16GG/L	8C/ 8c	16G\L	.
16FF/JJ)	.	16F\JJ)	.
=79	=79	=79	=79
*^	*	*	*
2GG/	8r	8r	2G\	.
.	4CC\	4C/ 4c	.	.
.	8CC\	8C/ 8c	.	.
*v	*v	*	*	*
=80	=80	=80	=80
(16FFF/LL	8r	16r	<
16CC/	.	(16C\LL	.
16FF/	4C/ 4c	16F\	.
16GG/JJ	.	16G\JJ	.
8AA-/L	.	8A-\L	[ >
16GG/L	8C/ 8c	16G\L	.
16FF/JJ)	.	16F\JJ)	]]
!!LO:LB:g=original	!	!	!
=81	=81	=81	=81
*^	*	*	*
2BB-/	8r	2B-/	8r	.
.	4CC\ 4GG	.	4C\ 4F 4c	.
.	8CC\ 8GG	.	8C\ 8F 8c	.
*v	*v	*	*	*
=82	=82	=82	=82
(16FFF/LL	8r	16r	.
16CC/	.	([16C\LL	.
16FF/	4C/] 4c	16F\	.
16GG/JJ	.	16G\JJ	.
8AA-/L	.	8A-\L	.
!	!	!	!LO:HP:t=cresc. e string.
16GG/L	8C/ 8c	16G\L	<
16FF/JJ)	.	16F\JJ)	.
=83	=83	=83	=83
(8GG/L	(8G/L	8r	.
16AA-/L	16A-/L	8C\ 8En	.
16BB-/JJ	16B-/JJ	.	.
8C/L	8c/L	8r	.
16BB-/L	16B-/L	8C\ 8F	.
16AA-/JJ)	16A-/JJ)	.	.
=84	=84	=84	=84
(16BB-/LL	(16B-/LL	8r	.
16C/	16c/	.	.
16BB-/	16B-/	8F-X\ 8A-	.
16C/JJ	16c/JJ	.	.
8D-/L	8d-/L	8r	.
16C/L	16c/L	8F-\ 8A-	.
16BB-/JJ)	16B-/JJ)	.	.
=85	=85	=85	=85
*^	*	*	*
!	!	!LO:TX:a:i:t=allargando molto.	!	!
!	!	!LO:TX:b:i:t=pesante	!	!
(4E-~/	8r	(4e-~/	8r	f <
.	8AAA-\ 8EE-	.	8E-\ 8A- 8c-X	.
4F~/	8r	4f~/	8r	.
.	8AAA-\ 8EE-	.	8E-\ 8A- 8c-	.
=86	=86	=86	=86	=86
4G-X~/	8r	4g-X~/	8r	.
.	8AAA-\ 8EE-	.	8E-\ 8A- 8c-X	[
8.F~/L	8r	8.f~/L	8r	>
.	8AAA-\ 8EE-	.	8E-\ 8A- 8c-	.
16C-X~/Jk	.	16c-~/Jk	.	.
=87	=87	=87	=87	=87
4E-~/	8r	4e-~/	8r	.
.	8AAA-\ 8EE-	.	8E-\ 8F 8c-X	.
4Dn~;/)	8r	4dn~;/)	8r	.
.	8AAAn\ 8AAn	.	8Dn\ 8F#X 8cn	]
*v	*v	*	*	*
*	*v	*v	*
!!LO:LB:g=original	!	!
=88	=88	=88
(16GGG/LL	8r	p
16GG/	.	.
*	*clefG2	*
!	!LO:TX:b:i:t=espress. poco rubato	!
16C/	4G/ 4c 4e- 4g	.
16Dn/JJ	.	.
8E-/L	.	.
16D/L	8G/ 8c 8e- 8g	.
16C/JJ)	.	.
=89	=89	=89
*^	*^	*
2Dn/	8r	16r	8r	.
.	.	([<16c/LL	.	.
.	4GG\	16f/	4.c\_	.
.	.	16g/JJ	.	.
.	.	8a-/L	.	.
.	8GG\	16g/L	.	.
.	.	16f/JJ)	.	.
*v	*v	*	*	*
=90	=90	=90	=90
!	!	!	!LO:HP:t=poco cresc.
(16GGG/LL	8e-/ 8g	8c\]	<
16GG/	.	.	.
16C/	4G/ 4c 4e- 4g	8ryy	.
16Dn/JJ	.	.	.
8E-/L	.	4ryy	.
16D/L	8G/ 8c 8e- 8g	.	.
16C/JJ)	.	.	.
=91	=91	=91	=91
*^	*	*	*
2F/	8r	16r	8r	.
.	.	([<16c/LL	.	.
.	4GG\	16f/	4.c\_	.
.	.	16g/JJ	.	.
.	.	8a-/L	.	.
.	8GG\	16g/L	.	.
.	.	16f/JJ)	.	.
*v	*v	*	*	*
*	*v	*v	*
=92	=92	=92
(16GGG/LL	8c:/L] 8e-: 8cc:	p
16GG/	.	.
16C/	8G/J 8c 8e- 8g	.
16Dn/JJ	.	.
8.E-\L	16r	.
.	(16G/LL	>
.	16c/	.
16D\Jk)	16dn/JJ	.
=93	=93	=93
(16C/LL	8.e-/L	.
16GG/	.	.
16C/	.	.
16Dn/JJ	16dn/Jk)	] pp
!	!LO:TX:a:i:t=acceler.	!
8.E-\L	(16c/LL	.
.	16G/	.
.	16c/	.
16D\Jk)	16d/JJ	.
!!LO:LB:g=original	!	!
=94	=94	=94
!	!LO:TX:a:i:t=molto	!
(<16C/LL	16e-/LL	.
16GG/	16f/	.
16C/	16e-/	.
16Dn/JJ	16dn/JJ	.
16E-\LL	16c/LL	.
16F\	16G/	.
16E-\	16c/	.
16D\JJ	16d/JJ	.
=95	=95	=95
16C/LL	16e-/LL	.
16GG/	16f/	.
16C/	16e-/	.
16Dn/JJ	16dn/JJ	.
8.E-\L	16c/LL	.
.	16G/	.
.	16c/	.
16D\Jk)	16d/JJ)	.
=96	=96	=96
!	!LO:TX:b:i:t=ad lib. quasi cadenza	!
(<16C\LL	(>8.e-/L	.
16Dn\	.	.
16E-\	.	.
16F#X\JJ	16dn/Jk	.
8.An\L	16c/LL	.
.	16d/	.
.	16e-/	.
16G\Jk	16f#X/JJ	.
=97	=97	=97
!	!	!LO:HP:a:t=cresc. e string. sempre
16F#X\LL	8.an/L	<
16An\	.	.
16c\	.	.
16dn\JJ	16g/Jk	.
8.e->\L	16f#X/LL	.
.	16a/	.
.	16cc/	.
16dn>\Jk	16ddn/JJ	.
=98	=98	=98
16c>\LL	8.ee-/L	.
16dn>\	.	.
16e->\	.	.
16f#X>\JJ	16ddn/Jk	.
8.an>\L	16cc/LL	.
.	16dd/	.
.	16ee-/	.
16g>\Jk	16ff#X/JJ	.
!!LO:LB:g=original	!	!
=99	=99	=99
16f#X>\LL	8.aan/L	.
16an>\	.	.
16cc>\	.	.
16ddn>\JJ	16gg/Jk	.
8.ee->\L	16ff#X/LL	.
.	16aa/	.
.	16ccc/	.
16dd>\Jk	16dddn/JJ	.
=100	=100	=100
16cc>\LL	16eee-/LL	.
16ddn>\	16fffn/	.
16ee->\	16eee-/	.
16ff#X>\JJ	16dddn/JJ	.
!LO:N:vis=8	!	!
8.aan>\L	16ccc/LL	.
.	16ddd/	.
.	16eee-/	.
16gg>\Jk)	16fff#X/JJ)	.
=101	=101	=101
(16ff#X>~\LL	(16aaan~/LL	.
16aan>~\	16fff#X~/	.
16ff#>~\	16eee-~/	.
16ee->~\JJ	16ccc~/JJ	.
!LO:TX:a:i:t=veloce	!	!
16cc>\LL	16aan/LL	.
16a>\	16ff#X/	.
16f#X>\	16ee-/	.
16e->\JJ	16cc/JJ	.
=102	=102	=102
24c\LL	24an/LL	.
24An\	24f#X/	.
24F#X\	24e-/	.
24E-\	24c/	.
24C\	24An</	.
24AAn\JJ	24F#X</JJ	.
*Xtuplet	*	*
24FF#X\LL	24E-</LL	.
24EE-\JJ)	24C</	.
24r	24AAn</	.
8r	24FF#X</	.
.	24EE-</	.
.	24CC</JJ)	.
=103	=103	=103
*^	*	*
[<2AAAn/	4ryy	4ryy	sf
.	[4c-X>:\ [4g>: [>4an>:	[4een/ [4aan [4eeen	ff
=104	=104	=104	=104
4.AAA/]	4.c->\] 4.g>] 4.a>]	4.ee/] 4.aa] 4.eee]	.
*	*8va	*8va	*
8ryy	N[8aaan>\	N[8aaan/	.
*	*X8va	*X8va	*
*v	*v	*	*
!!LO:LB:g=original	!	!
=105	=105	=105
*	*8va	*
16aa>\LLN]N]	16aaaan/LL	.
!LO:TX:a:i:t=m.g.	!	!
N(>N(<16aan>~\	16ffff#X~/	.
16ff#X>~\	16eeee-X~/	.
16ee-X>~\JJ	16ccccn~/JJ	.
16ccn>\LL	16aaan/LL	.
16an>\	16fff#X/	.
16f#X>\	16eee-X/	.
16e-X>\JJ	16ccc/JJ	.
*	*X8va	*
=106	=106	=106
16cc>\LL	16aan/LL	.
16an>\	16ff#X/	.
16f#X>\	16ee-/	.
16e->\JJ	16cc/JJ	.
16c\LL	16an/LL	.
16An\	16f#X/	.
16F#X\	16e-/	.
16E-\JJ	16c/JJ	.
*	*clefF4	*
=107	=107	=107
*tuplet	*	*
24C/LL	24An/LL	.
24AAn/	24F#X/	.
24FF#X/	24E-/	.
24EE-/	24C/	.
24CC/	24AAn/	.
24AAAn/JJ	24FF#X/JJ	.
*8ba	*8ba	*
*Xbrackettup	*	*
!LO:TUP:a	!	!
!LO:TUP:r=4	!LO:TUP:a	!
24FFF#/LL	24EE-/LL	.
24EEE-/	24CC/	.
24CCC/JJN)	24AAAn/	.
!LO:TUP:r=4	!	!LO:HP:a
!LO:N:vis=8	!	!
24r	24FFF#X/	<
24ryy	24EEE-/	.
24ryy	24CCC/JJN)	.
*	*X8ba	*
=108	=108	=108
*	*^	*
*ped	*	*	*
4AAAAn/	4r	4ryy	[ sf
*X8ba	*	*	*
*clefG2	*clefG2	*	*
*	*v	*v	*
*	*^	*
*	*	*8va	*
!	!LO:TX:a:i:t=m.g.	!	!
[4c#X;:/ [4g: [4an: [4een:	[4eeeen;:/	[4aan:\ [4eeen: [4aaan:	[ fff
=109	=109	=109	=109
4c#/] 4g] 4a] 4ee]	4eeee/]	4aa\] 4eee] 4aaa]	.
*clefF4	*	*X8va	*
(<4D-X;\ [<4G (>4An	4f-X;\ 4an 4ff-X	4ryy	pp
*Xped	*	*	*
*	*v	*v	*
=110	=110	=110
*^	*	*
*ped	*	*	*
2D-/) 2G] 2B-)	4r	2e-;/ 2b- 2ee-	.
.	8EEE-^\	.	.
.	8r;>	.	.
*Xped	*	*	*
!!LO:PB:g=original	!	!	!
=111	=111	=111	=111
*	*	*^	*
!	!	!LO:TX:a:B:t=Tempo I.	!	!
!	!	!LO:TX:b:i:t=dolce grazioso	!	!
8AA-/	4.AA-\	8r	8ryy	.
4.E-/	.	(8ee-':/L	[4.cc:\	.
.	.	8ee-'/	.	.
.	8EE-\	8ee-'/J)	.	.
=112	=112	=112	=112	=112
8AA-/	4.AA-\	(28ee-/LL	8cc\]	.
.	.	28ff/	.	.
.	.	28ee-/	.	.
.	.	28cc/	.	.
4.E-/	.	.	8ryy	.
.	.	28a-/	.	.
.	.	28f/	.	.
.	.	28e-/JJ	.	.
.	.	8c'/L)	4ryy	.
.	8EE-\	8c/J	.	.
*	*	*v	*v	*
=113	=113	=113	=113
8AA-/	4.AA-\	(16c/LL	.
.	.	16d-/J	.
4.E-/	.	32c/LL	.
.	.	32d-/	.
.	.	32c/	.
.	.	32d-/JJJ	.
.	.	8c/L	.
.	8EE-\	16B-/L	.
.	.	16A-/JJ)	.
=114	=114	=114	=114
*	*	*^	*
8BB-/	4BB-\	[4e-/	(4d-\	.
4E-/	.	.	.	.
.	4r	8e-/]	8B-\)	.
(<8EE-/	.	8r	8r	.
=115	=115	=115	=115	=115
8AA-/)	4.AA-\	8r	8ryy	.
4.E-/	.	(8ee-'/L	[4.cc\	.
.	.	8ee-'/	.	.
.	8EE-\	8ee-'/J)	.	.
=116	=116	=116	=116	=116
8AA-/	4.AA-\	(28ee-/LL	8cc\]	.
.	.	28ff/	.	.
.	.	28ee-/	.	.
.	.	28cc/	.	.
4.E-/	.	.	8ryy	.
.	.	28a-/	.	.
.	.	28f/	.	.
.	.	28e-/JJ	.	.
.	.	8c'/L)	4ryy	.
.	8EE-\	8c'/J	.	.
*	*	*v	*v	*
!!LO:LB:g=original	!	!	!
=117	=117	=117	=117
8AA-/	4.AA-\	(16c/LL	.
.	.	16d-/J	.
4.E-/	.	32c/LL	.
.	.	32d-/	.
.	.	32c/	.
.	.	32d-/JJJ	.
.	.	8c/L	.
.	8EE-\	16B-/L	.
.	.	16A-/JJ)	.
=118	=118	=118	=118
*	*	*^	*
8BB-/	4BB-\	[4e-/	(4d-\	.
4E-/	.	.	.	.
.	4r	8e-/]	8B-\)	.
(<8DD-/	.	8r	8ryy	.
*v	*v	*	*	*
*	*v	*v	*
=119	=119	=119
8CC/)	8r	.
(4E-~\ 4A- 4e-	(8ee-'\L	.
.	8ee-'\	.
8E-'\) 8A- 8e-	16ee-'\L	.
.	16ee-'\JJ)	.
=120	=120	=120
8BBBn/	(16ff\LL	.
.	16gg\J	.
(4E-~\ 4A- 4dn	32ff\LL	.
.	32gg\	.
.	32ff\	.
.	32gg\JJJ	.
.	8aa-\L)	.
8E-'\) 8A- 8d	(16gg'\L	.
.	16ff'\JJ)	.
=121	=121	=121
8CC/	(4ee-\	.
4E-~\ 4A- [4e-	.	.
.	8cc\L)	.
8E-'\ 8A- 8e-]	(16cc\L	.
.	16cc\JJ	<
!!LO:LB:g=original	!	!
=122	=122	=122
*	*^	*
8DD-/	16b-/LL	4.f\	.
.	16cc/J	.	.
(4D-\ 4A-	32b-/LL	.	[
.	32cc/	.	.
.	32b-/	.	.
.	32cc/JJJ	.	>
.	8dd-/L	.	.
8D-\) 8G	16cc/L	8f-X\	.
.	16b-/JJ	.	.
*	*v	*v	*
=123	=123	=123
8CC/	4e-/) 4ee-	]
(<4G\ 4e-	.	.
.	8ee-\L	.
8A-\) 8e-	16ee-\L	.
.	16ee-\JJ	.
=124	=124	=124
!	!	!LO:HP:t=poco cresc.
8DD-/	(16ff\LL	<
.	16gg\J	.
4A-\ 4d- 4f	32ff\LL	.
.	32gg\	.
.	32ff\	.
.	32gg\JJJ	.
.	8aa-\L)	.
(8DDn/	(16gg'\L	.
.	16ff'\JJ)	.
=125	=125	=125
8EE-/)	(4ee-\	.
4E-\ 4A- 4c 4e-	.	.
.	8cc\L)	.
(8EE-/	16cc\L	.
.	16cc\JJ	.
=126	=126	=126
8DDn/)	(16ff\LL	.
.	16gg\J	.
4B-\ 4f 4a-	32ff\LL	.
.	32gg\	.
.	32ff\	<
.	32gg\JJJ	.
.	8aa-\L)	.
(8DD/	(16gg'\L	.
.	16ff'\JJ)	[[
!!LO:LB:g=original	!	!
=127	=127	=127
8EE-/)	[2bb-\	.
4B-\ 4d-X 4g	.	.
(8EE-/	.	.
=128	=128	=128
8EEn/)	(16bb-\LL]	.
.	16ccc\J	.
4B-\ 4d- 4g	32bb-\LL	.
.	32ccc\	.
.	32bb-\	.
.	32ccc\JJJ	.
.	8ddd-\L)	.
(8EE/	(16ccc'\L	.
.	16bb-'\JJ)	.
=129	=129	=129
!	!	!LO:HP:t=dim.
8FF/)	(4aa-\	>
4C\ 4F 4A- 4c	.	.
.	8gg\L)	.
8FF/	(8ff\J	.
=130	=130	=130
8GG/	16ee-\LL	.
.	16ff\J	.
4E-\ 4B- 4d- 4e-	32ee-\LL	.
.	32ff\	.
.	32ee-\	>
.	32ff\JJJ	.
.	8gg\L)	.
8E-\ 8B- 8d- 8e-	(16ff\L	.
.	16dd-\JJ)	]]
=131	=131	=131
*	*^	*
8AA-/	(4cc/	4.r	.
4E-\ 4A- 4c	.	.	.
.	8ee-/L)	.	.
!	!	!LO:TX:t=P:problem: voice leading line	!
8AAn\ 8G-X	8ee-/J	[8e-\	.
=132	=132	=132	=132
8BB-/	(16b-/LL	8e-\]	.
.	16cc/J	.	.
4F\ 4d-	32b-/LL	8ryy	.
.	32cc/	.	.
.	32b-/	.	.
.	32cc/JJJ	.	.
.	8dd-/L	4ryy	.
8F-X\ 8d-	16cc/L	.	.
.	16b-/JJ)	.	.
*	*v	*v	*
!!LO:LB:g=original	!	!
=133	=133	=133
!	!	!LO:HP:t=poco cresc.
8EE-/	(16a-/LL	<
.	16b-/J	.
4E-\ 4A- 4d-	32a-/LL	.
.	32b-/	.
.	32a-/	.
.	32b-/JJJ	.
.	8cc/L	.
8E-\ 8A- 8c	16b-/L	.
.	16a-/JJ)	.
=134	=134	=134
!	!LO:TX:b:i:t=espress.	!
8EE-/	(16f/LL	.
.	16g/J	.
4E-\ 4A- 4B- 4dn	32f/LL	.
.	32g/	.
.	32f/	.
.	32g/JJJ	.
.	8a-/L	.
8E-\ 8A- 8B- 8d	16g/L	.
.	16f/JJ)	.
=135	=135	=135
*^	*^	*
!	!	!	!	!LO:HP:a
(8E-/L	2EE-\	(4a-/	(8c\L	>
8Dn/	.	.	8B-\	.
8C/	.	4e-/)	8A-\	]
16D/L	.	.	16B-\L	.
16C/JJ)	.	.	16A-\JJ)	.
=136	=136	=136	=136	=136
!	!	!LO:TX:b:i:t=poco slent.	!	!
8Dn/	2EE-\	(16f/LL	2B-\	p
.	.	16g/J	.	.
4BB-/	.	32f/LL	.	.
.	.	32g/	.	.
.	.	32f/	.	.
.	.	32g/JJJ	.	.
.	.	8a-/L	.	.
8BB-/	.	16g/L	.	.
.	.	16f/JJ)	.	.
=137	=137	=137	=137	=137
(8E-/L	2EE-\	(4a-/	(8c\L	.
8Dn/	.	.	8B-\	.
8C/	.	4e-/)	8A-\	.
16D/L	.	.	16B-\L	.
16C/JJ)	.	.	16A-\JJ)	.
!!LO:LB:g=original	!	!	!	!
=138	=138	=138	=138	=138
!	!	!	!	!LO:DY:t=poco stretto e rinforzando molto
8Dn/	2EE-\	(16f/LL	4B-\	rfz
.	.	16g/	.	.
4BB-/	.	16f/	.	.
.	.	16g/JJ	.	.
.	.	8a-/L	4ryy	.
[8BB-/	.	16g/L	.	.
.	.	16f/JJ)	.	.
*v	*v	*	*	*
*	*v	*v	*
=139	=139	=139
8EE-/ 8BB-]	(16b-\LL	.
.	16cc\	.
4A-\ 4B- 4dn	16b-\	.
.	16cc\JJ	.
.	8ddn\L	.
[8BB-/	16cc\L	.
.	16b-\JJ)	.
=140	=140	=140
8EE-/ 8BB-]	(16ff\LL	.
.	16gg\	.
4A-\ 4B- 4dn	16ff\	.
.	16gg\JJ	.
.	8aa-\L	.
[8BB-/	16gg\L	.
.	16ff\JJ)	.
=141	=141	=141
8EE-/ 8BB-]	(16bb-\LL	.
!	!LO:TX:b:i:t=rit.	!
.	16ccc\	.
4A-\ 4B- 4dn	16bb-\	.
.	16ccc\JJ	.
.	8dddn\L	.
8EE-/	16ccc\L	.
.	16bb-\JJ)	.
=142	=142	=142
*	*^	*
!	!LO:TX:a:i:t=a tempo	!	!
!	!LO:TX:b:i:t=con passione\nrubato	!	!
!	!LO:TX:b:i:t=m.g.	!	!
4EEE-:/ 4EE-:	16ee-/LL 16gg 16ddd- 16eee-	16ryy	ff
.	16ff/	16f\LL	.
.	16ee-/	16e-\	.
.	16ff/JJ	16f\JJ	.
4r	8dd-/L	(8d-\L	.
.	8ee-/J 8gg 8ddd- 8eee-	16c\L 16cc	.
.	.	16B-\JJ) 16b-	.
!!LO:PB:g=original	!	!	!
=143	=143	=143	=143
(8c>\L 8cc>	8r	4ryy	.
8E-\J) 8e->	8ee-/ 8aa- 8ccc 8eee-	.	.
8A-\L	8r	8a-\L	.
16G\L	8a-/ 8cc 8ee-	16g\L	.
16F\JJ	.	16f\JJ	.
=144	=144	=144	=144
*^	*	*	*
*	*	*	*	*^
!	!	!	!	!LO:DY:a	!LO:DY:b=2
16E-:/LL	8EE-:\	8g/ 8dd- 8ee-	16e-\LL	sf	sf
16F/	.	.	16f\	.	.
16E-/	8ryy	8ryy	16e-\	.	.
16F/JJ	.	.	16f\JJ	.	.
!	!	!LO:TX:a:i:t=allarg.	!	!	!
8G\L	4ryy	8g/L	4ryy	.	.
16F\L	.	16f/L	.	.	.
16E-\JJ	.	16e-/JJ	.	.	.
*	*	*	*	*v	*v
=145	=145	=145	=145	=145
8r	4F~\	8r	4f~\	.
8A-/	.	8a-/ 8cc	.	.
8r	4C~\	8r	4c~\	.
8A-/	.	8a-/ 8cc	.	.
*v	*v	*	*	*
=146	=146	=146	=146
!	!LO:TX:a:i:t=a tempo poco rubato	!	!
4.E-:\ 4.d-: 4.f:	(16ee-:/LL	4.a-:\	pp
.	16ff/	.	.
.	16ee-/	.	.
.	16ff/JJ	.	.
.	8dd-/L	.	.
8E-\ 8d- 8e-	16cc/L	8g\	.
.	16b-/JJ)	.	.
=147	=147	=147	=147
8E-\ 8c 8e-	8cc'/L	8a-\	.
8r	(>8e-/	4.ryy	.
4r	8a-/	.	.
.	16g/L	.	.
.	16f/JJ)	.	.
=148	=148	=148	=148
[4E-\ [4d-	(16e-/LL	((4An\	.
.	16f/	.	.
.	16e-/	.	.
.	16f/JJ	.	.
8E-\] 8d-]	8g/L	8B-\L)	.
8r	16f/L	8Bn\J)	.
.	16e-/JJ)	.	.
=149	=149	=149	=149
*^	*	*	*
!	!	!LO:TX:a:i:t=a tempo	!	!
!	!	!LO:TX:b:i:t=espress.	!	!
(16E-/LL	[2AA-\	(4a-/	2c\	.
16F/	.	.	.	.
16E-/	.	.	.	.
16F/JJ	.	.	.	.
!	!	!LO:TX:t=P:problem: brak ligatury w t. 149 a w t. 150 obecna 	!	!
8G/L	.	[4e-/)	.	.
16F/L	.	.	.	.
16G/JJ)	.	.	.	.
!!LO:LB:g=original	!	!	!	!
=150	=150	=150	=150	=150
!	!	!LO:TX:b:i:t=morendo	!	!
[2E-/	2AA-\]	(16e-/LL]	2d-\	.
.	.	16f/	.	.
.	.	16e-/	.	.
.	.	16f/JJ	.	.
.	.	8g/L	.	.
.	.	16f/L	.	.
.	.	16e-/JJ)	.	.
=151	=151	=151	=151	=151
(16E-/LL]	[2AA-\	(4a-/	2c\	.
16F/	.	.	.	.
16E-/	.	.	.	.
16F/JJ	.	.	.	.
8G/L	.	[4e-/)	.	.
16F/L	.	.	.	.
16G/JJ)	.	.	.	.
=152	=152	=152	=152	=152
[2E-/	2AA-\_	(16e-/LL]	2d-\	.
.	.	16f/	.	.
.	.	16e-/	.	.
.	.	16f/JJ	.	.
.	.	8g/L	.	.
.	.	16f/L	.	.
.	.	16e-/JJ	.	.
=153	=153	=153	=153	=153
4.E-/]	2AA-\]	16f/LL	2c\	.
.	.	16g/	.	.
.	.	16f/	.	.
.	.	16g/JJ	.	.
.	.	8a-/L	.	.
8Dn/	.	16g/L	.	.
.	.	[<16f/JJ	.	.
*v	*v	*	*	*
=154	=154	=154	=154
!	!	!	!LO:HP:t=poco cresc.
2AA-/ 2D-X	16a-/LL	2c-X\ 2f]	<
.	16b-/	.	.
.	16a-/	.	.
.	16b-/JJ	.	.
.	8cc-X/L	.	.
.	16b-/L	.	.
.	16a-/JJ	.	.
*	*v	*v	*
=155	=155	=155
(16AA-/LL	4cn/) 4f 4ccn	.
16BB-/	.	.
16AA-/	.	.
16BB-/JJ	.	.
8C/L	4r	.
16BB-/L	.	.
16AA-/JJ)	.	.
*kcancel	*kcancel	*
!!LO:LB:g=original	!	!
=156	=156	=156
*k[f#c#g#]	*k[f#c#g#]	*
*^	*^	*
*	*	*	*^	*
(<[4B:/	8GG#:\ 8E:	(4ee/	[2e\	16b\LL	.
.	.	.	.	16cc#\	.
.	8r	.	.	16b\	.
.	.	.	.	16cc#\JJ	.
16B/LL]	4r	[4ee/	.	8.dd\L	.
16c#/	.	.	.	.	.
16B/	.	.	.	.	.
16c#/JJ	.	.	.	16cc#\Jk	.
*v	*v	*	*	*	*
=157	=157	=157	=157	=157
8.d\L	4ee/]	2e\]	16b\LL	>
.	.	.	16cc#\	.
.	.	.	16b\	.
16c#\Jk	.	.	16cc#\JJ	.
16B\LL	[4ee/	.	8.dd\L	.
16c#\	.	.	.	.
16B\	.	.	.	.
16c#\JJ	.	.	16cc#\Jk	]]
*	*v	*v	*v	*
=158	=158	=158
8.d\L	16b/LL 16ee]	pp
.	16e/	.
.	16b/	.
16c#\Jk	16cc#/JJ	.
16B\LL	16dd\LL	.
16E\	16ee\	.
16B\	16dd\	.
16c#\JJ	16cc#\JJ	.
=159	=159	=159
8.d\L	16b/LL	.
.	16e/	.
.	16b/	.
16c#\Jk	16cc#/JJ	.
!	!	!LO:HP:a:t=poco string. e cresc.
16B\LL	16dd\LL	<
16E\	16ee\	.
16B\	16dd\	.
16c#\JJ	16cc#\JJ	.
=160	=160	=160
8.d\L	16b/LL	.
.	16e/	.
.	16b/	.
16c#\Jk	16cc#/JJ	.
16B\LL	16dd/LL 16ee	.
16d\	16b/	.
16B\	16g#/	.
16G#\JJ	16e/JJ	.
=161	=161	=161
16E\LL	16d\LL	.
16D\	16B</	.
16BB\	16G#</	.
16GG#\JJ	16E</JJ	.
!	!LO:TUP:a	!
24BB\LL	24G#</LL	.
24D\	24B</	.
24E\	24d\	.
24G#\	24e\	.
24B\	24g#\	.
24d\JJ	24b\JJ	.
*clefG2	*	*
=162	=162	=162
!LO:TUP:b	!LO:TUP:a	!
40e/LLL	40dd\LLL 40ee	.
40d/	40b\	.
40B/	40g#\	.
40G#/	40e\	.
40B/	40g#\	.
40d/	40b\	.
40e/	40dd\	.
40g#/	40ee\	.
40b/	40gg#\	.
40dd/JJJ	40bb\JJJ	.
*	*8va	*
!LO:TUP:a	!LO:TUP:a	!
40ee\LLL	40ddd\LLL 40eee	.
40dd\	40bb\	.
40b\	40gg#\	.
40g#\	40ee\	.
40b\	40gg#\	.
40dd\	40bb\	.
40ee\	40ddd\	.
40gg#\	40eee\	.
40bb\	40ggg#\	.
40ddd\JJJ	40bbb\JJJ	.
=163	=163	=163
*	*^	*
8eee\)	8dddd\) 8eeee	4ryy	.
*	*X8va	*	*
!	!LO:TX:a:i:t=poco allarg.	!	!
8r	8ee~/L	.	.
*clefF4	*	*	*
4GG#:/ 4E: 4B:	8ee~:/	4d:\ 4b:	.
.	8ee~/J	.	.
=164	=164	=164	=164
8GGG#/	8r	4ryy	.
8r	8ee~/L	.	.
4GG#:/ 4E: 4A:	8a~:/ 8ee:	4c#:\	.
.	8g#~/J 8ee	.	.
*	*v	*v	*
*kcancel	*kcancel	*
=165	=165	=165
*k[b-e-a-d-]	*k[b-e-a-d-]	*
*^	*^	*
8AAA-/	4ryy	8r	4r	.
8r	.	(8ee-'/L	.	.
(8B-/L	[4AA-\ 4E-	8ee-'/	4d-\ 4g	>
8B--/J	.	8ee-'/J)	.	]]
*v	*v	*	*	*
=166	=166	=166	=166
!	!LO:TX:a:i:t=a tempo	!	!
!	!LO:TUP:b	!	!
8AA-/]) 8E- 8A-	(28ee-/LL	8c\ 8a-	p
.	28ff/	.	.
.	28ee-/	.	.
.	28cc/	.	.
8r	.	8r	.
.	28an/	.	.
.	28f/	.	.
.	28e-/JJ	.	.
8r	8c/L)	4ryy	.
8EE-/	8c/J	.	.
*	*v	*v	*
=167	=167	=167
*^	*	*
8AA-/	4.AA-\	(>16c/LL	.
.	.	16d-/J	.
4.E-/	.	32c/LL	.
.	.	32d-/	.
.	.	32c/	.
.	.	32d-/JJJ	.
.	.	8c/L	.
.	8EE-\	16B-/L	.
.	.	[16A-/JJ)	.
*v	*v	*	*
!!LO:LB:g=original	!	!
=168	=168	=168
*	*^	*
8BB-/L	[<4d-/ [>4e-	4A-\]	.
[8E-/J	.	.	.
4E-;/]	4G;/ 4d-] 4e-]	4ryy	.
=169	=169	=169	=169
*^	*	*	*
8AA-/	4.AA-\	8r	8r	.
4.E-/	.	(8ee-'/L	[4.cc\	.
.	.	8ee-'/	.	.
.	8EE-\	8ee-'/J)	.	.
=170	=170	=170	=170	=170
8AA-/	4.AA-\	(28ee-/LL	8cc\]	.
.	.	28ff/	.	.
.	.	28ee-/	.	.
.	.	28cc/	.	.
4.E-/	.	.	8ryy	.
.	.	28a-/	.	.
.	.	28f/	.	.
.	.	28e-/JJ)	.	.
.	.	8c/L	4ryy	.
.	8EE-\	8c/J	.	.
*	*	*v	*v	*
=171	=171	=171	=171
8AA-/	4.AA-\	(16c/LL	.
.	.	16d-/J	.
4.E-/	.	32c/LL	.
.	.	32d-/	.
.	.	32c/	.
.	.	32d-/JJJ	.
.	.	8c/L	.
.	8r	16B-/L	.
.	.	16A-/JJ)	.
=172	=172	=172	=172
*	*	*^	*
8DD-/L	[4DD-\	[>4d-/ [4f-X	4ryy	.
[8F-X/J	.	.	.	.
4DD-;</] 4F-]	4ryy	4d-;/] 4f-]	4A-;\	.
*v	*v	*	*	*
=173	=173	=173	=173
8AAA-/	8r	4ryy	.
8r	(>8ee-'>/L	.	.
[4E-\ [4c [4e-	8ee-'/	[4cc\	.
.	8ee-'/J)	.	.
=174	=174	=174	=174
8E-\] 8c] 8e-]	(24ee-/LL	8cc\]	.
.	24ff/	.	.
.	24ee-/	.	.
8r	24cc/	8ryy	.
.	24a-/	.	.
.	24f/JJ	.	.
!	!LO:TUP:a	!	!
4r	24e-\LL	4ryy	.
.	24f\	.	.
.	24e-\	.	.
.	24c\	.	.
.	24A-</	.	.
.	24F</JJ	.	.
*	*v	*v	*
=175	=175	=175
!	!	!LO:HP:a:t=poco accel. e cresc.
4r	24E-</LL	<
.	24F</	.
.	24E-</	.
.	24C</	.
.	24AA-</	.
.	24C</JJ	.
*	*Xtuplet	*
24r	24E-</LL	.
(<24EE-\LL	24C</	.
24AA-\	24E-</	.
24C\	24A-</	.
24E-\	24c</	.
24A-\JJ	24e-\JJ	.
!!LO:LB:g=original	!	!
=176	=176	=176
24c>\LL	24a-/LL	.
24e->\	24cc/	.
24a->\	24ee-/	.
24cc>\	24aa-/	.
24ee->\	24ccc/	.
24aa->\JJ	24eee-/JJ	.
*Xtuplet	*	*
24ccc>\LL	24ddd-/LL 24fff	.
24aa->\	24eee-/	.
24ee->\	24ccc/	.
24cc>\	24aa-/	.
24a->\	24ff/	.
24e->\JJ	24ee-/JJ	.
=177	=177	=177
24cc>\LL	24ff/LL 24aa-	.
24a->\	24ee-/	.
24e->\	24cc/	.
24c>\	24a-/	.
24A-/	24f/	.
24E-/JJ	24e-/JJ	.
24c\LL	24f\LL 24a-	.
24A-\	24e-\	.
24E-\	24c\	.
24C\	24A-</	.
24AA-\	24F</	.
24EE-\JJ)	24E-</JJ)	.
=178	=178	=178
!	!	!LO:HP:a
(24AAA-^<\LL	24r<	>
24EE-\	(24C</LL	.
24AA-\	24E-</	.
24C\	24A-</	.
24E-\	24c</	.
24A-\JJ	24e-\JJ	.
32c>\LLL	32a-/LLL	.
32e->\	32cc/	.
32a->\	32ee-/	.
32cc>\	32aa-/	.
*	*8va	*
32e->\	32ccc/	.
32a->\	32eee-/	.
32cc>\	32aaa-/	]
32ee->\JJJ	32cccc/JJJ	.
=179	=179	=179
8aa->\)	8aaaa-/)	.
*	*X8va	*
8ryy	8r	.
4ryy	4r	.
=180	=180	=180
2EE-/ 2E-	2e-/ 2g 2dd- 2ee-	pp
=181	=181	=181
2AAA-/ 2AA-	2c/ 2e- 2a- 2cc	.
==	==	==
*-	*-	*-
!!!system-decoration: {(s1,s2)}
!!!RDF**kern: > = above
!!!RDF**kern: < = below
!!!RDF**kern: N = linked
!!!ENC: Andrzej Gręziak
!!!END: 2023-10-22
!!!EED: Jan Barakat
!!!EEV: 2023-11-24
